X: 159
T:Miller of Drangan
T:Miller of Droghan
M:C
L:1/8
S:Kevin Burke/ Open House 94
K:EMinor
BA | GE E2 DEB,E | DEGA BcBA | GE E2 DEB,E | DEGA B2 BA |
 GE E2 CEB,D | DEGA BcBA | GE E2 DEB,E | DEGA B2 BA :||
| BA | G2 BG DGBG | E2 ef gedB | G2 BG DGBA | GEGA B2 BA | 
G2 BG DGBG | E2 ef gfed | faef deBA | GEGA B4 :||
